X: 37614
T: Smultronstället
R: reel
M: 4/4
K: Gmixolydian
B3A GABg|f3g agfe|d3e dcBG|ABcA e2d2|
BcBA GABg|f3g agfe|dGAc BEFA|1 DGGF G3A:|2 DGGF GABd||
|:a3g afdf|a3g afge|d3e dcBG|ABcA e2d2|
a3g fdfg|a3g afge|dGAc BEFA|1 DGGF GABd:|2 DGGF G4||

